X:1463
T:Jetzt gang i ans Br\"unnele
C:anon.
O:Germany
A:Remstale
R:Waltz
Z:Transcribed by Frank Nordberg - http://www.musicaviva.com
F:http://abc.musicaviva.com/tunes/germany/jetzt-gang-i-ans-brunnele.abc
M:3/4
L:1/4
K:G
D|"G"G>F G/A/|"B"B>cB|"D7"AGA|"G"G z D|
w:Jetzt gang i ans_ Br\"un-ne-le, trink a-ber net, jetzt
"G"B>A B/c/|"G"d>ed|"D7"cBc|"G"B2 z|:"G"d3|
w:gang i ans_ Br\"un-ne-le, trink a-ber net, do
"D7"d/c/cc|"G"Bd/B/B|"D7"B/A/AA|[1"G"B<d z:|[2"G"G2|]
